images/11972600.svg

<?xml version="1.0" encoding="UTF-8"?>
<svg xmlns="http://www.w3.org/2000/svg" xmlns:xlink="http://www.w3.org/1999/xlink" width="300pt" height="300pt" viewBox="0 0 300 300" version="1.1">
<defs>
<g>
<symbol overflow="visible" id="glyph0-0">
<path style="stroke:none;" d="M 0.453125 1.59375 L 0.453125 -6.34375 L 4.953125 -6.34375 L 4.953125 1.59375 Z M 0.953125 1.09375 L 4.453125 1.09375 L 4.453125 -5.84375 L 0.953125 -5.84375 Z M 0.953125 1.09375 "/>
</symbol>
<symbol overflow="visible" id="glyph0-1">
<path style="stroke:none;" d="M 3.546875 -5.953125 C 2.898438 -5.953125 2.382812 -5.710938 2 -5.234375 C 1.625 -4.753906 1.4375 -4.101562 1.4375 -3.28125 C 1.4375 -2.445312 1.625 -1.789062 2 -1.3125 C 2.382812 -0.832031 2.898438 -0.59375 3.546875 -0.59375 C 4.191406 -0.59375 4.703125 -0.832031 5.078125 -1.3125 C 5.453125 -1.789062 5.640625 -2.445312 5.640625 -3.28125 C 5.640625 -4.101562 5.453125 -4.753906 5.078125 -5.234375 C 4.703125 -5.710938 4.191406 -5.953125 3.546875 -5.953125 Z M 3.546875 -6.6875 C 4.460938 -6.6875 5.195312 -6.375 5.75 -5.75 C 6.300781 -5.132812 6.578125 -4.3125 6.578125 -3.28125 C 6.578125 -2.238281 6.300781 -1.410156 5.75 -0.796875 C 5.195312 -0.179688 4.460938 0.125 3.546875 0.125 C 2.617188 0.125 1.878906 -0.179688 1.328125 -0.796875 C 0.773438 -1.410156 0.5 -2.238281 0.5 -3.28125 C 0.5 -4.3125 0.773438 -5.132812 1.328125 -5.75 C 1.878906 -6.375 2.617188 -6.6875 3.546875 -6.6875 Z M 3.546875 -6.6875 "/>
</symbol>
<symbol overflow="visible" id="glyph0-2">
<path style="stroke:none;" d="M 0.890625 -6.5625 L 1.765625 -6.5625 L 1.765625 -3.875 L 5 -3.875 L 5 -6.5625 L 5.890625 -6.5625 L 5.890625 0 L 5 0 L 5 -3.125 L 1.765625 -3.125 L 1.765625 0 L 0.890625 0 Z M 0.890625 -6.5625 "/>
</symbol>
</g>
</defs>
<g id="surface37981">
<rect x="0" y="0" width="300" height="300" style="fill:rgb(100%,100%,100%);fill-opacity:1;stroke:none;"/>
<path style="fill:none;stroke-width:1.2;stroke-linecap:butt;stroke-linejoin:miter;stroke:rgb(0%,0%,0%);stroke-opacity:1;stroke-miterlimit:10;" d="M 35.25 141.082031 L 48.835938 155.195312 "/>
<path style="fill:none;stroke-width:1.2;stroke-linecap:butt;stroke-linejoin:miter;stroke:rgb(0%,0%,0%);stroke-opacity:1;stroke-miterlimit:10;" d="M 48.835938 155.195312 L 67.847656 150.484375 "/>
<path style="fill:none;stroke-width:1.2;stroke-linecap:butt;stroke-linejoin:miter;stroke:rgb(0%,0%,0%);stroke-opacity:1;stroke-miterlimit:10;" d="M 70.152344 150.570312 L 70.507812 140.78125 "/>
<path style="fill:none;stroke-width:1.2;stroke-linecap:butt;stroke-linejoin:miter;stroke:rgb(100%,0%,0%);stroke-opacity:1;stroke-miterlimit:10;" d="M 70.507812 140.78125 L 70.867188 130.996094 "/>
<path style="fill:none;stroke-width:1.2;stroke-linecap:butt;stroke-linejoin:miter;stroke:rgb(0%,0%,0%);stroke-opacity:1;stroke-miterlimit:10;" d="M 65.546875 150.402344 L 65.902344 140.613281 "/>
<path style="fill:none;stroke-width:1.2;stroke-linecap:butt;stroke-linejoin:miter;stroke:rgb(100%,0%,0%);stroke-opacity:1;stroke-miterlimit:10;" d="M 65.902344 140.613281 L 66.257812 130.828125 "/>
<path style="fill:none;stroke-width:1.2;stroke-linecap:butt;stroke-linejoin:miter;stroke:rgb(0%,0%,0%);stroke-opacity:1;stroke-miterlimit:10;" d="M 67.847656 150.484375 L 74.640625 157.542969 "/>
<path style="fill:none;stroke-width:1.2;stroke-linecap:butt;stroke-linejoin:miter;stroke:rgb(100%,0%,0%);stroke-opacity:1;stroke-miterlimit:10;" d="M 74.640625 157.542969 L 81.433594 164.597656 "/>
<path style=" stroke:none;fill-rule:nonzero;fill:rgb(100%,100%,100%);fill-opacity:1;" d="M 64.5625 125.410156 L 72.5625 125.410156 L 72.5625 136.410156 L 64.5625 136.410156 Z M 64.5625 125.410156 "/>
<g style="fill:rgb(100%,0%,0%);fill-opacity:1;">
  <use xlink:href="#glyph0-1" x="64.5625" y="134.073242"/>
</g>
<path style="fill:none;stroke-width:1.2;stroke-linecap:butt;stroke-linejoin:miter;stroke:rgb(100%,0%,0%);stroke-opacity:1;stroke-miterlimit:10;" d="M 81.433594 164.597656 L 90.941406 162.246094 "/>
<path style="fill:none;stroke-width:1.2;stroke-linecap:butt;stroke-linejoin:miter;stroke:rgb(0%,0%,0%);stroke-opacity:1;stroke-miterlimit:10;" d="M 90.941406 162.246094 L 100.449219 159.890625 "/>
<path style=" stroke:none;fill-rule:nonzero;fill:rgb(100%,100%,100%);fill-opacity:1;" d="M 77.433594 159.097656 L 85.433594 159.097656 L 85.433594 170.097656 L 77.433594 170.097656 Z M 77.433594 159.097656 "/>
<g style="fill:rgb(100%,0%,0%);fill-opacity:1;">
  <use xlink:href="#glyph0-1" x="77.433594" y="167.760742"/>
</g>
<path style="fill:none;stroke-width:1.2;stroke-linecap:butt;stroke-linejoin:miter;stroke:rgb(0%,0%,0%);stroke-opacity:1;stroke-miterlimit:10;" d="M 100.449219 159.890625 L 114.03125 174.003906 "/>
<path style="fill:none;stroke-width:1.2;stroke-linecap:butt;stroke-linejoin:miter;stroke:rgb(0%,0%,0%);stroke-opacity:1;stroke-miterlimit:10;" d="M 111.816406 173.363281 L 109.101562 182.773438 "/>
<path style="fill:none;stroke-width:1.2;stroke-linecap:butt;stroke-linejoin:miter;stroke:rgb(100%,0%,0%);stroke-opacity:1;stroke-miterlimit:10;" d="M 109.101562 182.773438 L 106.386719 192.183594 "/>
<path style="fill:none;stroke-width:1.2;stroke-linecap:butt;stroke-linejoin:miter;stroke:rgb(0%,0%,0%);stroke-opacity:1;stroke-miterlimit:10;" d="M 116.246094 174.640625 L 113.53125 184.050781 "/>
<path style="fill:none;stroke-width:1.2;stroke-linecap:butt;stroke-linejoin:miter;stroke:rgb(100%,0%,0%);stroke-opacity:1;stroke-miterlimit:10;" d="M 113.53125 184.050781 L 110.816406 193.460938 "/>
<path style="fill:none;stroke-width:1;stroke-linecap:butt;stroke-linejoin:miter;stroke:rgb(0%,0%,0%);stroke-opacity:1;stroke-miterlimit:10;" d="M 133.046875 169.292969 L 133.046875 169.292969 M 130.054688 169.5 L 130.304688 170.511719 M 127.058594 169.703125 L 127.5625 171.726562 M 124.066406 169.90625 L 124.820312 172.941406 M 121.074219 170.109375 L 122.078125 174.160156 M 118.082031 170.316406 L 119.332031 175.375 M 115.085938 170.519531 L 116.589844 176.589844 M 113.199219 170.648438 L 114.863281 177.359375 "/>
<path style=" stroke:none;fill-rule:nonzero;fill:rgb(100%,100%,100%);fill-opacity:1;" d="M 104.601562 187.324219 L 112.601562 187.324219 L 112.601562 198.324219 L 104.601562 198.324219 Z M 104.601562 187.324219 "/>
<g style="fill:rgb(100%,0%,0%);fill-opacity:1;">
  <use xlink:href="#glyph0-1" x="104.601562" y="195.987305"/>
</g>
<path style="fill:none;stroke-width:1.2;stroke-linecap:butt;stroke-linejoin:miter;stroke:rgb(0%,0%,0%);stroke-opacity:1;stroke-miterlimit:10;" d="M 133.046875 169.292969 L 135.742188 188.695312 "/>
<path style="fill:none;stroke-width:1.2;stroke-linecap:butt;stroke-linejoin:miter;stroke:rgb(0%,0%,0%);stroke-opacity:1;stroke-miterlimit:10;" d="M 133.046875 169.292969 L 129.710938 160.085938 "/>
<path style="fill:none;stroke-width:1.2;stroke-linecap:butt;stroke-linejoin:miter;stroke:rgb(100%,0%,0%);stroke-opacity:1;stroke-miterlimit:10;" d="M 129.710938 160.085938 L 126.375 150.875 "/>
<path style="fill:none;stroke-width:1.2;stroke-linecap:butt;stroke-linejoin:miter;stroke:rgb(0%,0%,0%);stroke-opacity:1;stroke-miterlimit:10;" d="M 150.664062 160.734375 L 133.046875 169.292969 "/>
<path style="fill:none;stroke-width:1.2;stroke-linecap:butt;stroke-linejoin:miter;stroke:rgb(0%,0%,0%);stroke-opacity:1;stroke-miterlimit:10;" d="M 135.742188 188.695312 L 155.027344 192.128906 "/>
<path style=" stroke:none;fill-rule:nonzero;fill:rgb(0%,0%,0%);fill-opacity:1;" d="M 164.25 174.847656 L 151.976562 190.5 L 158.074219 193.757812 Z M 164.25 174.847656 "/>
<path style="fill:none;stroke-width:1.2;stroke-linecap:butt;stroke-linejoin:miter;stroke:rgb(0%,0%,0%);stroke-opacity:1;stroke-miterlimit:10;" d="M 164.25 174.847656 L 150.664062 160.734375 "/>
<path style="fill:none;stroke-width:1.2;stroke-linecap:butt;stroke-linejoin:miter;stroke:rgb(0%,0%,0%);stroke-opacity:1;stroke-miterlimit:10;" d="M 183.265625 170.140625 L 164.25 174.847656 "/>
<path style="fill:none;stroke-width:1.2;stroke-linecap:butt;stroke-linejoin:miter;stroke:rgb(0%,0%,0%);stroke-opacity:1;stroke-miterlimit:10;" d="M 150.664062 160.734375 L 156.09375 141.914062 "/>
<path style=" stroke:none;fill-rule:nonzero;fill:rgb(0%,0%,0%);fill-opacity:1;" d="M 150.664062 160.734375 L 141.976562 142.84375 L 136.378906 146.898438 Z M 150.664062 160.734375 "/>
<path style="fill:none;stroke-width:1.2;stroke-linecap:butt;stroke-linejoin:miter;stroke:rgb(0%,0%,0%);stroke-opacity:1;stroke-miterlimit:10;" d="M 156.09375 141.914062 L 175.109375 137.207031 "/>
<path style="fill:none;stroke-width:1;stroke-linecap:butt;stroke-linejoin:miter;stroke:rgb(0%,0%,0%);stroke-opacity:1;stroke-miterlimit:10;" d="M 175.109375 137.207031 L 175.109375 137.207031 M 176.78125 139.695312 L 177.535156 138.972656 M 178.457031 142.1875 L 179.957031 140.742188 M 180.128906 144.675781 L 182.382812 142.507812 M 181.800781 147.167969 L 184.808594 144.273438 M 183.476562 149.65625 L 187.230469 146.042969 M 185.148438 152.148438 L 189.65625 147.808594 M 186.203125 153.714844 L 191.183594 148.921875 "/>
<path style=" stroke:none;fill-rule:nonzero;fill:rgb(0%,0%,0%);fill-opacity:1;" d="M 175.109375 137.207031 L 183.859375 119.34375 L 177.21875 117.425781 Z M 175.109375 137.207031 "/>
<path style="fill:none;stroke-width:1.2;stroke-linecap:butt;stroke-linejoin:miter;stroke:rgb(0%,0%,0%);stroke-opacity:1;stroke-miterlimit:10;" d="M 188.695312 151.320312 L 183.265625 170.140625 "/>
<path style="fill:none;stroke-width:1.2;stroke-linecap:butt;stroke-linejoin:miter;stroke:rgb(0%,0%,0%);stroke-opacity:1;stroke-miterlimit:10;" d="M 207.707031 146.609375 L 188.695312 151.320312 "/>
<path style=" stroke:none;fill-rule:nonzero;fill:rgb(0%,0%,0%);fill-opacity:1;" d="M 183.265625 170.140625 L 194.359375 186.648438 L 199.339844 181.855469 Z M 183.265625 170.140625 "/>
<path style="fill:none;stroke-width:1.2;stroke-linecap:butt;stroke-linejoin:miter;stroke:rgb(0%,0%,0%);stroke-opacity:1;stroke-miterlimit:10;" d="M 196.847656 184.253906 L 215.863281 179.542969 "/>
<path style="fill:none;stroke-width:1.2;stroke-linecap:butt;stroke-linejoin:miter;stroke:rgb(0%,0%,0%);stroke-opacity:1;stroke-miterlimit:10;" d="M 215.863281 179.542969 L 221.292969 160.722656 "/>
<path style="fill:none;stroke-width:1.2;stroke-linecap:butt;stroke-linejoin:miter;stroke:rgb(0%,0%,0%);stroke-opacity:1;stroke-miterlimit:10;" d="M 221.292969 160.722656 L 240.304688 156.015625 "/>
<path style="fill:none;stroke-width:1.2;stroke-linecap:butt;stroke-linejoin:miter;stroke:rgb(0%,0%,0%);stroke-opacity:1;stroke-miterlimit:10;" d="M 222.085938 155.777344 L 237.296875 152.011719 "/>
<path style="fill:none;stroke-width:1.2;stroke-linecap:butt;stroke-linejoin:miter;stroke:rgb(0%,0%,0%);stroke-opacity:1;stroke-miterlimit:10;" d="M 207.707031 146.609375 L 221.292969 160.722656 "/>
<path style="fill:none;stroke-width:1.2;stroke-linecap:butt;stroke-linejoin:miter;stroke:rgb(0%,0%,0%);stroke-opacity:1;stroke-miterlimit:10;" d="M 240.304688 156.015625 L 245.734375 137.195312 "/>
<path style="fill:none;stroke-width:1.2;stroke-linecap:butt;stroke-linejoin:miter;stroke:rgb(0%,0%,0%);stroke-opacity:1;stroke-miterlimit:10;" d="M 246.289062 139.429688 L 255.796875 137.078125 "/>
<path style="fill:none;stroke-width:1.2;stroke-linecap:butt;stroke-linejoin:miter;stroke:rgb(100%,0%,0%);stroke-opacity:1;stroke-miterlimit:10;" d="M 255.796875 137.078125 L 265.304688 134.722656 "/>
<path style="fill:none;stroke-width:1.2;stroke-linecap:butt;stroke-linejoin:miter;stroke:rgb(0%,0%,0%);stroke-opacity:1;stroke-miterlimit:10;" d="M 245.183594 134.957031 L 254.6875 132.601562 "/>
<path style="fill:none;stroke-width:1.2;stroke-linecap:butt;stroke-linejoin:miter;stroke:rgb(100%,0%,0%);stroke-opacity:1;stroke-miterlimit:10;" d="M 254.6875 132.601562 L 264.195312 130.25 "/>
<path style="fill:none;stroke-width:1.2;stroke-linecap:butt;stroke-linejoin:miter;stroke:rgb(0%,0%,0%);stroke-opacity:1;stroke-miterlimit:10;" d="M 245.734375 137.195312 L 232.152344 123.082031 "/>
<path style=" stroke:none;fill-rule:nonzero;fill:rgb(100%,100%,100%);fill-opacity:1;" d="M 260.75 126.984375 L 268.75 126.984375 L 268.75 137.984375 L 260.75 137.984375 Z M 260.75 126.984375 "/>
<g style="fill:rgb(100%,0%,0%);fill-opacity:1;">
  <use xlink:href="#glyph0-1" x="260.75" y="135.647461"/>
</g>
<path style="fill:none;stroke-width:1.2;stroke-linecap:butt;stroke-linejoin:miter;stroke:rgb(0%,0%,0%);stroke-opacity:1;stroke-miterlimit:10;" d="M 232.152344 123.082031 L 213.136719 127.789062 "/>
<path style="fill:none;stroke-width:1.2;stroke-linecap:butt;stroke-linejoin:miter;stroke:rgb(0%,0%,0%);stroke-opacity:1;stroke-miterlimit:10;" d="M 231.359375 128.027344 L 216.148438 131.792969 "/>
<path style="fill:none;stroke-width:1.2;stroke-linecap:butt;stroke-linejoin:miter;stroke:rgb(0%,0%,0%);stroke-opacity:1;stroke-miterlimit:10;" d="M 213.136719 127.789062 L 207.707031 146.609375 "/>
<path style=" stroke:none;fill-rule:nonzero;fill:rgb(0%,0%,0%);fill-opacity:1;" d="M 207.707031 146.609375 L 196.613281 130.101562 L 191.632812 134.894531 Z M 207.707031 146.609375 "/>
<path style=" stroke:none;fill-rule:nonzero;fill:rgb(100%,100%,100%);fill-opacity:1;" d="M 173.539062 112.886719 L 188.539062 112.886719 L 188.539062 123.886719 L 173.539062 123.886719 Z M 173.539062 112.886719 "/>
<g style="fill:rgb(100%,0%,0%);fill-opacity:1;">
  <use xlink:href="#glyph0-1" x="173.539062" y="121.549805"/>
  <use xlink:href="#glyph0-2" x="180.880859" y="121.549805"/>
</g>
<path style="fill:none;stroke-width:1.2;stroke-linecap:butt;stroke-linejoin:miter;stroke:rgb(100%,0%,0%);stroke-opacity:1;stroke-miterlimit:10;" d="M 126.375 150.875 L 116.734375 149.160156 "/>
<path style="fill:none;stroke-width:1.2;stroke-linecap:butt;stroke-linejoin:miter;stroke:rgb(0%,0%,0%);stroke-opacity:1;stroke-miterlimit:10;" d="M 116.734375 149.160156 L 107.089844 147.445312 "/>
<path style=" stroke:none;fill-rule:nonzero;fill:rgb(100%,100%,100%);fill-opacity:1;" d="M 122.375 145.375 L 130.375 145.375 L 130.375 156.375 L 122.375 156.375 Z M 122.375 145.375 "/>
<g style="fill:rgb(100%,0%,0%);fill-opacity:1;">
  <use xlink:href="#glyph0-1" x="122.375" y="154.038086"/>
</g>
<path style="fill:none;stroke-width:1.2;stroke-linecap:butt;stroke-linejoin:miter;stroke:rgb(0%,0%,0%);stroke-opacity:1;stroke-miterlimit:10;" d="M 105.738281 145.578125 L 101.523438 148.628906 "/>
<path style="fill:none;stroke-width:1.2;stroke-linecap:butt;stroke-linejoin:miter;stroke:rgb(100%,0%,0%);stroke-opacity:1;stroke-miterlimit:10;" d="M 101.523438 148.628906 L 97.308594 151.683594 "/>
<path style="fill:none;stroke-width:1.2;stroke-linecap:butt;stroke-linejoin:miter;stroke:rgb(0%,0%,0%);stroke-opacity:1;stroke-miterlimit:10;" d="M 108.441406 149.3125 L 104.226562 152.363281 "/>
<path style="fill:none;stroke-width:1.2;stroke-linecap:butt;stroke-linejoin:miter;stroke:rgb(100%,0%,0%);stroke-opacity:1;stroke-miterlimit:10;" d="M 104.226562 152.363281 L 100.011719 155.414062 "/>
<path style="fill:none;stroke-width:1.2;stroke-linecap:butt;stroke-linejoin:miter;stroke:rgb(0%,0%,0%);stroke-opacity:1;stroke-miterlimit:10;" d="M 107.089844 147.445312 L 103.753906 138.234375 "/>
<path style="fill:none;stroke-width:1.2;stroke-linecap:butt;stroke-linejoin:miter;stroke:rgb(100%,0%,0%);stroke-opacity:1;stroke-miterlimit:10;" d="M 103.753906 138.234375 L 100.421875 129.027344 "/>
<path style=" stroke:none;fill-rule:nonzero;fill:rgb(100%,100%,100%);fill-opacity:1;" d="M 90.660156 148.050781 L 98.660156 148.050781 L 98.660156 159.050781 L 90.660156 159.050781 Z M 90.660156 148.050781 "/>
<g style="fill:rgb(100%,0%,0%);fill-opacity:1;">
  <use xlink:href="#glyph0-1" x="90.660156" y="156.713867"/>
</g>
<path style="fill:none;stroke-width:1.2;stroke-linecap:butt;stroke-linejoin:miter;stroke:rgb(100%,0%,0%);stroke-opacity:1;stroke-miterlimit:10;" d="M 100.421875 129.027344 L 90.777344 127.308594 "/>
<path style="fill:none;stroke-width:1.2;stroke-linecap:butt;stroke-linejoin:miter;stroke:rgb(0%,0%,0%);stroke-opacity:1;stroke-miterlimit:10;" d="M 90.777344 127.308594 L 81.136719 125.59375 "/>
<path style=" stroke:none;fill-rule:nonzero;fill:rgb(100%,100%,100%);fill-opacity:1;" d="M 96.421875 123.527344 L 104.421875 123.527344 L 104.421875 134.527344 L 96.421875 134.527344 Z M 96.421875 123.527344 "/>
<g style="fill:rgb(100%,0%,0%);fill-opacity:1;">
  <use xlink:href="#glyph0-1" x="96.421875" y="132.19043"/>
</g>
<path style="fill:none;stroke-width:1.2;stroke-linecap:butt;stroke-linejoin:miter;stroke:rgb(0%,0%,0%);stroke-opacity:1;stroke-miterlimit:10;" d="M 81.136719 125.59375 L 74.464844 107.175781 "/>
</g>
</svg>

<svg xmlns="http://www.w3.org/2000/svg" xmlns:xlink="http://www.w3.org/1999/xlink" width="300pt" height="300pt" viewBox="0 0 300 300"><defs><symbol overflow="visible"><path d="M.453 1.594v-7.938h4.5v7.938zm.5-.5h3.5v-6.938h-3.5zm0 0"/></symbol><symbol overflow="visible" id="a"><path d="M3.547-5.953c-.65 0-1.164.242-1.547.72-.375.48-.563 1.13-.563 1.952 0 .835.188 1.49.563 1.967.383.48.898.72 1.547.72.644 0 1.156-.24 1.53-.72.376-.476.564-1.132.564-1.968 0-.822-.187-1.474-.562-1.954-.375-.477-.887-.72-1.53-.72zm0-.734c.914 0 1.648.312 2.203.937.55.617.828 1.438.828 2.47 0 1.042-.277 1.87-.828 2.483-.555.617-1.29.922-2.203.922-.93 0-1.668-.305-2.22-.922C.774-1.41.5-2.237.5-3.28c0-1.033.273-1.853.828-2.47.55-.625 1.29-.938 2.22-.938zm0 0"/></symbol><symbol overflow="visible" id="b"><path d="M.89-6.563h.876v2.688H5v-2.688h.89V0H5v-3.125H1.766V0H.89zm0 0"/></symbol></defs><g><path fill="#fff" d="M0 0h300v300H0z"/><path d="M35.25 141.082l13.586 14.113M48.836 155.195l19.012-4.71M70.152 150.57l.356-9.79" stroke-width="1.2" stroke="#000" stroke-miterlimit="10" fill="none"/><path d="M70.508 140.78l.36-9.784" stroke-width="1.2" stroke="#f00" stroke-miterlimit="10" fill="none"/><path d="M65.547 150.402l.355-9.79" stroke-width="1.2" stroke="#000" stroke-miterlimit="10" fill="none"/><path d="M65.902 140.613l.356-9.785" stroke-width="1.2" stroke="#f00" stroke-miterlimit="10" fill="none"/><path d="M67.848 150.484l6.793 7.06" stroke-width="1.2" stroke="#000" stroke-miterlimit="10" fill="none"/><path d="M74.64 157.543l6.794 7.055" stroke-width="1.2" stroke="#f00" stroke-miterlimit="10" fill="none"/><path d="M64.563 125.41h8v11h-8zm0 0" fill="#fff"/><use xlink:href="#a" x="64.563" y="134.073" fill="#f00"/><path d="M81.434 164.598l9.507-2.352" stroke-width="1.2" stroke="#f00" stroke-miterlimit="10" fill="none"/><path d="M90.94 162.246l9.51-2.355" stroke-width="1.2" stroke="#000" stroke-miterlimit="10" fill="none"/><path d="M77.434 159.098h8v11h-8zm0 0" fill="#fff"/><use xlink:href="#a" x="77.434" y="167.761" fill="#f00"/><path d="M100.45 159.89l13.58 14.114M111.816 173.363l-2.714 9.41" stroke-width="1.2" stroke="#000" stroke-miterlimit="10" fill="none"/><path d="M109.102 182.773l-2.715 9.41" stroke-width="1.2" stroke="#f00" stroke-miterlimit="10" fill="none"/><path d="M116.246 174.64l-2.715 9.41" stroke-width="1.2" stroke="#000" stroke-miterlimit="10" fill="none"/><path d="M113.53 184.05l-2.714 9.41" stroke-width="1.2" stroke="#f00" stroke-miterlimit="10" fill="none"/><path d="M133.047 169.293m-2.992.207l.25 1.012m-3.246-.81l.502 2.025m-3.496-1.82l.754 3.034m-3.746-2.83l1.004 4.05m-3.996-3.844l1.25 5.06m-4.246-4.856l1.504 6.07m-3.39-5.942l1.663 6.71" stroke="#000" stroke-miterlimit="10" fill="none"/><path d="M104.602 187.324h8v11h-8zm0 0" fill="#fff"/><use xlink:href="#a" x="104.602" y="195.987" fill="#f00"/><path d="M133.047 169.293l2.695 19.402M133.047 169.293l-3.336-9.207" stroke-width="1.2" stroke="#000" stroke-miterlimit="10" fill="none"/><path d="M129.71 160.086l-3.335-9.21" stroke-width="1.2" stroke="#f00" stroke-miterlimit="10" fill="none"/><path d="M150.664 160.734l-17.617 8.56M135.742 188.695l19.285 3.434" stroke-width="1.2" stroke="#000" stroke-miterlimit="10" fill="none"/><path d="M164.25 174.848L151.977 190.5l6.097 3.258zm0 0"/><path d="M164.25 174.848l-13.586-14.114M183.266 170.14l-19.016 4.708M150.664 160.734l5.43-18.82" stroke-width="1.2" stroke="#000" stroke-miterlimit="10" fill="none"/><path d="M150.664 160.734l-8.687-17.89-5.598 4.054zm0 0"/><path d="M156.094 141.914l19.015-4.707" stroke-width="1.2" stroke="#000" stroke-miterlimit="10" fill="none"/><path d="M175.11 137.207m1.67 2.488l.755-.722m.922 3.214l1.5-1.445m.172 3.934l2.253-2.168m-.582 4.66l3.01-2.895m-1.333 5.383l3.753-3.613m-2.082 6.105l4.508-4.34m-3.453 5.907l4.98-4.793" stroke="#000" stroke-miterlimit="10" fill="none"/><path d="M175.11 137.207l8.75-17.863-6.64-1.918zm0 0"/><path d="M188.695 151.32l-5.43 18.82M207.707 146.61l-19.012 4.71" stroke-width="1.2" stroke="#000" stroke-miterlimit="10" fill="none"/><path d="M183.266 170.14l11.093 16.508 4.98-4.793zm0 0"/><path d="M196.848 184.254l19.015-4.71M215.863 179.543l5.43-18.82M221.293 160.723l19.012-4.707M222.086 155.777l15.21-3.765M207.707 146.61l13.586 14.113M240.305 156.016l5.43-18.82M246.29 139.43l9.507-2.352" stroke-width="1.2" stroke="#000" stroke-miterlimit="10" fill="none"/><path d="M255.797 137.078l9.508-2.355" stroke-width="1.2" stroke="#f00" stroke-miterlimit="10" fill="none"/><path d="M245.184 134.957l9.504-2.355" stroke-width="1.2" stroke="#000" stroke-miterlimit="10" fill="none"/><path d="M254.688 132.602l9.507-2.352" stroke-width="1.2" stroke="#f00" stroke-miterlimit="10" fill="none"/><path d="M245.734 137.195l-13.582-14.113" stroke-width="1.2" stroke="#000" stroke-miterlimit="10" fill="none"/><path d="M260.75 126.984h8v11h-8zm0 0" fill="#fff"/><use xlink:href="#a" x="260.75" y="135.647" fill="#f00"/><path d="M232.152 123.082l-19.015 4.707M231.36 128.027l-15.212 3.766M213.137 127.79l-5.43 18.82" stroke-width="1.2" stroke="#000" stroke-miterlimit="10" fill="none"/><path d="M207.707 146.61L196.613 130.1l-4.98 4.793zm0 0"/><path d="M173.54 112.887h15v11h-15zm0 0" fill="#fff"/><g fill="#f00"><use xlink:href="#a" x="173.539" y="121.55"/><use xlink:href="#b" x="180.881" y="121.55"/></g><path d="M126.375 150.875l-9.64-1.715" stroke-width="1.2" stroke="#f00" stroke-miterlimit="10" fill="none"/><path d="M116.734 149.16l-9.644-1.715" stroke-width="1.2" stroke="#000" stroke-miterlimit="10" fill="none"/><path d="M122.375 145.375h8v11h-8zm0 0" fill="#fff"/><use xlink:href="#a" x="122.375" y="154.038" fill="#f00"/><path d="M105.738 145.578l-4.215 3.05" stroke-width="1.2" stroke="#000" stroke-miterlimit="10" fill="none"/><path d="M101.523 148.63l-4.214 3.054" stroke-width="1.2" stroke="#f00" stroke-miterlimit="10" fill="none"/><path d="M108.44 149.313l-4.213 3.05" stroke-width="1.2" stroke="#000" stroke-miterlimit="10" fill="none"/><path d="M104.227 152.363l-4.215 3.05" stroke-width="1.2" stroke="#f00" stroke-miterlimit="10" fill="none"/><path d="M107.09 147.445l-3.336-9.21" stroke-width="1.2" stroke="#000" stroke-miterlimit="10" fill="none"/><path d="M103.754 138.234l-3.332-9.207" stroke-width="1.2" stroke="#f00" stroke-miterlimit="10" fill="none"/><path d="M90.66 148.05h8v11h-8zm0 0" fill="#fff"/><use xlink:href="#a" x="90.66" y="156.714" fill="#f00"/><path d="M100.422 129.027l-9.645-1.718" stroke-width="1.2" stroke="#f00" stroke-miterlimit="10" fill="none"/><path d="M90.777 127.31l-9.64-1.716" stroke-width="1.2" stroke="#000" stroke-miterlimit="10" fill="none"/><path d="M96.422 123.527h8v11h-8zm0 0" fill="#fff"/><use xlink:href="#a" x="96.422" y="132.19" fill="#f00"/><path d="M81.137 125.594l-6.672-18.418" stroke-width="1.2" stroke="#000" stroke-miterlimit="10" fill="none"/></g></svg>
